src/icons/outline/symbols/desktop.svg

<svg width="24" height="24" viewBox="0 0 24 24" fill="none" xmlns="http://www.w3.org/2000/svg">
<g clip-path="url(#clip0_6362_1224)">
<path fill-rule="evenodd" clip-rule="evenodd" d="M13.7142 19.1536C13.9156 19.1636 14.0568 19.2036 14.1878 19.2733C14.3087 19.343 14.4092 19.4131 14.4999 19.5127L16.4258 21.2962C16.5367 21.4556 16.5969 21.6448 16.607 21.8441C16.607 22.0433 16.5776 22.2332 16.4868 22.4026C16.3961 22.5719 16.2643 22.7211 16.093 22.8307C15.9217 22.9402 15.7303 23 15.5288 23H8.32939L8.31955 22.9903C8.16835 22.9902 7.98676 22.9398 7.81543 22.8502C7.6241 22.7406 7.47313 22.5714 7.37236 22.3724C7.30183 22.2629 7.24149 22.0636 7.24141 21.8645C7.24141 21.6653 7.30114 21.4656 7.4019 21.2962L7.523 21.1571L9.378 19.4825C9.42841 19.4227 9.54995 19.3234 9.6911 19.2636C9.82205 19.194 9.98308 19.1636 10.1342 19.1536H13.7142ZM8.86404 21.6952H14.9745L13.5931 20.439H10.2553L8.86404 21.6952ZM10.1243 20.4692L10.2257 20.439H10.1549L10.1243 20.4692Z" fill="#3C3B44"/>
<path fill-rule="evenodd" clip-rule="evenodd" d="M21.0436 1C21.5578 1 22.062 1.20978 22.425 1.55851C22.7978 1.92705 22.9999 2.40483 23 2.92269V16.5041C22.9999 17.0121 22.7878 17.5099 22.425 17.8586C22.062 18.2173 21.5679 18.4171 21.0436 18.4171H2.95641C2.43223 18.4171 1.94803 18.2173 1.57501 17.8488C1.21204 17.4901 1 17.0016 1 16.4934V2.91296C1.00003 2.40489 1.20205 1.91717 1.57501 1.55851C1.93797 1.19982 2.44221 1 2.95641 1H21.0436ZM2.32035 16.4837C2.32035 16.6531 2.3916 16.8129 2.50251 16.9225C2.62346 17.0419 2.78517 17.1113 2.95641 17.1113H21.0436C21.215 17.1113 21.3765 17.0418 21.4975 16.9322C21.6185 16.8127 21.6787 16.6528 21.6787 16.4934V15.0193H2.32035V16.4837ZM2.32035 13.7242H21.6787V4.59726H2.32035V13.7242ZM2.95641 2.28536C2.78514 2.28536 2.62346 2.35494 2.50251 2.4644C2.38152 2.58396 2.32035 2.74381 2.32035 2.90323V3.30217H21.6787V2.91296C21.6786 2.74375 21.6082 2.58467 21.4975 2.4751C21.3765 2.35553 21.215 2.29509 21.0436 2.29509H2.95641V2.28536Z" fill="#3C3B44"/>
</g>
<defs>
<clipPath id="clip0_6362_1224">
<rect width="24" height="24" fill="white"/>
</clipPath>
</defs>
</svg>

<svg xmlns="http://www.w3.org/2000/svg" width="24" height="24" fill="none" viewBox="0 0 24 24"><g fill="currentColor" fill-rule="evenodd" clip-path="url(#a)" clip-rule="evenodd"><path d="M13.714 19.154c.202.01.343.05.474.12.12.069.221.14.312.239l1.926 1.783c.11.16.17.349.181.548 0 .2-.03.39-.12.559a1.15 1.15 0 0 1-.394.428 1.04 1.04 0 0 1-.564.169h-7.2l-.01-.01a1.14 1.14 0 0 1-.504-.14 1.14 1.14 0 0 1-.443-.478 1 1 0 0 1-.13-.508c0-.199.06-.398.16-.568l.121-.139 1.855-1.674c.05-.06.172-.16.313-.22.131-.069.292-.1.443-.11zm-4.85 2.541h6.11l-1.38-1.256h-3.339zm1.26-1.226.102-.03h-.071zM21.044 1c.514 0 1.018.21 1.381.559.373.368.575.846.575 1.364v13.581c0 .508-.212 1.006-.575 1.355a1.96 1.96 0 0 1-1.381.558H2.956c-.524 0-1.008-.2-1.381-.568A1.9 1.9 0 0 1 1 16.493V2.913c0-.508.202-.996.575-1.354A1.97 1.97 0 0 1 2.956 1zM2.32 16.484c0 .17.072.329.183.438.12.12.282.19.453.19h18.088c.171 0 .332-.07.453-.18a.62.62 0 0 0 .182-.439V15.02H2.32zm0-2.76h19.36V4.597H2.32zm.636-11.439a.68.68 0 0 0-.453.18.62.62 0 0 0-.183.438v.4h19.36v-.39a.62.62 0 0 0-.181-.438.64.64 0 0 0-.454-.18H2.956z"/></g><defs><clipPath id="a"><path fill="currentColor" d="M0 0h24v24H0z"/></clipPath></defs></svg>
